svgs/regular/brazilian-real-sign.svg

<svg xmlns="http://www.w3.org/2000/svg" viewBox="0 0 512 512"><!--! Font Awesome Pro 6.4.2 by @fontawesome - https://fontawesome.com License - https://fontawesome.com/license (Commercial License) Copyright 2023 Fonticons, Inc. --><path d="M400 0c13.3 0 24 10.7 24 24V65.2c14.6 1.7 29 5.4 42.7 10.9l14.2 5.7c12.3 4.9 18.3 18.9 13.4 31.2s-18.9 18.3-31.2 13.4l-14.3-5.7c-14.2-5.7-29.3-8.6-44.6-8.6H392c-30.9 0-56 25.1-56 56c0 23.5 14.7 44.6 36.8 52.6l70.7 25.7c41.1 14.9 68.4 54 68.4 97.7c0 52-38.2 95.1-88 102.8V488c0 13.3-10.7 24-24 24s-24-10.7-24-24V445.8c-17.1-3-33.7-8.9-48.9-17.6l-27-15.4c-11.5-6.6-15.5-21.2-8.9-32.7s21.2-15.5 32.7-8.9l27 15.4c15.4 8.8 32.8 13.4 50.6 13.4H408c30.9 0 56-25.1 56-56c0-23.5-14.7-44.6-36.8-52.6l-70.7-25.7c-41.1-14.9-68.4-54-68.4-97.7c0-52 38.2-95.1 88-102.8V24c0-13.3 10.7-24 24-24zM0 56C0 42.7 10.7 32 24 32h96c75.1 0 136 60.9 136 136c0 59.4-38.1 109.9-91.1 128.4l57.5 151c4.7 12.4-1.5 26.3-13.9 31s-26.3-1.5-31-13.9L116.4 304H48V456c0 13.3-10.7 24-24 24s-24-10.7-24-24V280 56zM48 256h72c48.6 0 88-39.4 88-88s-39.4-88-88-88H48V256z"/></svg>

<svg xmlns="http://www.w3.org/2000/svg" viewBox="0 0 512 512"><!--! Font Awesome Pro 6.1.1 by @fontawesome - https://fontawesome.com License - https://fontawesome.com/license (Commercial License) Copyright 2022 Fonticons, Inc. --><path d="M400 0C413.3 0 424 10.75 424 24V65.16C438.6 66.89 452.1 70.53 466.7 76.02L480.9 81.72C493.2 86.64 499.2 100.6 494.3 112.9C489.4 125.2 475.4 131.2 463.1 126.3L448.8 120.6C434.7 114.9 419.5 112 404.3 112H391.1C361.1 112 336 137.1 336 167.1C336 191.5 350.7 212.5 372.8 220.6L443.6 246.3C484.6 261.2 512 300.3 512 344C512 396 473.8 439.1 424 446.8V488C424 501.3 413.3 512 400 512C386.7 512 376 501.3 376 488V445.8C358.9 442.9 342.3 436.9 327.1 428.2L300.1 412.8C288.6 406.3 284.6 391.6 291.2 380.1C297.7 368.6 312.4 364.6 323.9 371.2L350.9 386.6C366.3 395.4 383.7 400 401.4 400H408C438.9 400 464 374.9 464 344C464 320.5 449.3 299.5 427.1 291.4L356.4 265.7C315.4 250.8 288 211.7 288 167.1C288 115.1 326.2 72.91 376 65.22V24C376 10.75 386.7 0 400 0L400 0zM0 56C0 42.75 10.75 32 24 32H120C195.1 32 256 92.89 256 168C256 227.4 217.9 277.9 164.9 296.4L222.4 447.5C227.1 459.8 220.9 473.7 208.5 478.4C196.2 483.1 182.3 476.9 177.6 464.5L116.4 304H48V456C48 469.3 37.25 480 24 480C10.75 480 0 469.3 0 456V56zM48 256H120C168.6 256 208 216.6 208 168C208 119.4 168.6 80 120 80H48V256z"/></svg>
